theme/icons/push-chevron-left-r.svg

<svg fill="none" height="24" width="24" xmlns="http://www.w3.org/2000/svg"><g fill="#f4f4f7"><path d="m16.674 9.172-1.414-1.415-4.243 4.243 4.243 4.243 1.414-1.415-2.828-2.828zm-6.711-1.172v8h-2v-8z"/><path clip-rule="evenodd" d="m1 5a4 4 0 0 1 4-4h14a4 4 0 0 1 4 4v14a4 4 0 0 1 -4 4h-14a4 4 0 0 1 -4-4zm4-2h14a2 2 0 0 1 2 2v14a2 2 0 0 1 -2 2h-14a2 2 0 0 1 -2-2v-14a2 2 0 0 1 2-2z" fill-rule="evenodd"/></g></svg>

<svg fill="none" height="24" width="24" xmlns="http://www.w3.org/2000/svg">
    <g fill="#f4f4f7">
        <path d="M16.674 9.172 15.26 7.757 11.017 12l4.243 4.243 1.414-1.415L13.846 12zM9.963 8v8h-2V8z"/>
        <path clip-rule="evenodd" d="M1 5a4 4 0 0 1 4-4h14a4 4 0 0 1 4 4v14a4 4 0 0 1-4 4H5a4 4 0 0 1-4-4zm4-2h14a2 2 0 0 1 2 2v14a2 2 0 0 1-2 2H5a2 2 0 0 1-2-2V5a2 2 0 0 1 2-2z" fill-rule="evenodd"/>
    </g>
</svg>
